X:42
T:Menuet
R:Menuet
C:anonyme
H:
N:2, p 7
B:
O:France
A:
Z:<eric.forgeot@caramail.com> -- http://anamnese.fr.st
M:2
L:1/4
Q:1/4=110
K:C
!!e2f | g/f/e/f/g | agf | !!ed/e/c | g/e/g/e/g/e/ | f/d/f/d/f/d/ |
e/f/g | f/e/ | !!d3 :||
